src/images/global/icons/action/zoom-in-fill.svg

<?xml version="1.0" encoding="UTF-8"?>
<svg width="48px" height="48px" viewBox="0 0 48 48" version="1.1" xmlns="http://www.w3.org/2000/svg" xmlns:xlink="http://www.w3.org/1999/xlink">
    <!-- Generator: Sketch 46.2 (44496) - http://www.bohemiancoding.com/sketch -->
    <title>icon/Action/zoom-in-fill</title>
    <desc>Created with Sketch.</desc>
    <defs>
        <path d="M23.5584544,20.9261498 C24.1978744,21.5170665 24.1364605,22.5516318 23.4155402,23.3326835 C23.0080383,23.7741426 22.4999886,23.9998848 22.0038291,24 C21.6046389,24 21.2132987,23.8537689 20.8882207,23.5563515 C20.171687,22.9005584 14.9169913,17.7012287 13.7972271,16.5925684 C12.4088348,17.4664983 10.7658983,17.9741013 9.00313539,17.9741013 C4.03080495,17.9741013 0,13.9503824 0,8.98705065 C0,4.02360364 4.03080495,0 9.00313539,0 C13.9753504,0 18.0061553,4.02360364 18.0062708,8.98716588 C18.0062708,10.8638566 17.4291882,12.6057242 16.4436802,14.0470632 C17.6750745,15.2435313 22.8820937,20.3010088 23.5584544,20.9261498 Z M12.4663238,8.29565042 L9.69577307,8.29565042 L9.69577307,5.5300495 C9.69577307,5.14828134 9.38558683,4.83864927 9.00313539,4.83864927 C8.62068395,4.83864927 8.31049771,5.14828134 8.31049771,5.5300495 L8.31049771,8.29565042 L5.53994701,8.29565042 C5.15749557,8.29565042 4.84730934,8.60528249 4.84730934,8.98705065 C4.84730934,9.36881881 5.15749557,9.67845088 5.53994701,9.67845088 L8.31049771,9.67845088 L8.31049771,12.4440518 C8.31049771,12.82582 8.62068395,13.135452 9.00313539,13.135452 C9.38558683,13.135452 9.69577307,12.82582 9.69577307,12.4440518 L9.69577307,9.67845088 L12.4663238,9.67845088 C12.8487752,9.67845088 13.1589614,9.36881881 13.1589614,8.98705065 C13.1589614,8.60528249 12.8488906,8.29565042 12.4663238,8.29565042 Z" id="path-1"></path>
    </defs>
    <g id="Symbols" stroke="none" stroke-width="1" fill="none" fill-rule="evenodd">
        <g id="icon/Action/zoom-in-fill">
            <g id="Icon" transform="translate(12.000000, 12.000000)">
                <mask id="mask-2" fill="white">
                    <use xlink:href="#path-1"></use>
                </mask>
                <use id="Mask" fill="#384048" xlink:href="#path-1"></use>
                <g id="Color/Grayscale/Night-Sky" mask="url(#mask-2)" fill="#111111">
                    <g transform="translate(-12.000000, -12.000000)" id="Swatch">
                        <rect x="0" y="0" width="48" height="48"></rect>
                    </g>
                </g>
            </g>
        </g>
    </g>
</svg>

<?xml version="1.0" encoding="utf-8"?>
<!-- Generator: Adobe Illustrator 21.0.2, SVG Export Plug-In . SVG Version: 6.00 Build 0)  -->
<svg version="1.1" id="action-zoom-in-fill-Layer_1" xmlns="http://www.w3.org/2000/svg" xmlns:xlink="http://www.w3.org/1999/xlink" x="0px" y="0px"
	 viewBox="0 0 48 48" style="enable-background:new 0 0 48 48;" xml:space="preserve">
<title>icon/Action/zoom-in-fill</title>
<g transform="translate(12 12)">
	<g>
		<path id="action-zoom-in-fill-a_1_" style="fill:#384048;" d="M23.6,20.9c0.6,0.6,0.6,1.6-0.1,2.4C23,23.8,22.5,24,22,24c-0.4,0-0.8-0.1-1.1-0.4
			c-0.7-0.7-6-5.9-7.1-7C12.4,17.5,10.7,18,9,18c-5,0-9-4-9-9s4-9,9-9c5,0,9,4,9,9c0,1.8-0.5,3.6-1.6,5.1
			C17.7,15.2,22.9,20.3,23.6,20.9L23.6,20.9z M12.5,8.3H9.7V5.5c0-0.4-0.3-0.7-0.7-0.7S8.3,5.1,8.3,5.5v2.8H5.5
			c-0.4,0-0.7,0.3-0.7,0.7c0,0.4,0.3,0.7,0.7,0.7c0,0,0,0,0.1,0h2.8v2.8c0,0.4,0.3,0.7,0.7,0.7s0.7-0.3,0.7-0.7V9.7h2.8
			c0.4,0,0.7-0.3,0.7-0.7S12.9,8.3,12.5,8.3C12.5,8.3,12.5,8.3,12.5,8.3z"/>
	</g>
	<defs>
		<filter id="action-zoom-in-fill-Adobe_OpacityMaskFilter" filterUnits="userSpaceOnUse" x="-12" y="-12" width="48" height="48">
			<feColorMatrix  type="matrix" values="1 0 0 0 0  0 1 0 0 0  0 0 1 0 0  0 0 0 1 0"/>
		</filter>
	</defs>
	<mask maskUnits="userSpaceOnUse" x="-12" y="-12" width="48" height="48" id="action-zoom-in-fill-b">
		<g style="filter:url(#action-zoom-in-fill-Adobe_OpacityMaskFilter);">
			<path id="action-zoom-in-fill-a" style="fill:#FFFFFF;" d="M23.6,20.9c0.6,0.6,0.6,1.6-0.1,2.4C23,23.8,22.5,24,22,24c-0.4,0-0.8-0.1-1.1-0.4
				c-0.7-0.7-6-5.9-7.1-7C12.4,17.5,10.7,18,9,18c-5,0-9-4-9-9s4-9,9-9c5,0,9,4,9,9c0,1.8-0.5,3.6-1.6,5.1
				C17.7,15.2,22.9,20.3,23.6,20.9L23.6,20.9z M12.5,8.3H9.7V5.5c0-0.4-0.3-0.7-0.7-0.7S8.3,5.1,8.3,5.5v2.8H5.5
				c-0.4,0-0.7,0.3-0.7,0.7c0,0.4,0.3,0.7,0.7,0.7c0,0,0,0,0.1,0h2.8v2.8c0,0.4,0.3,0.7,0.7,0.7s0.7-0.3,0.7-0.7V9.7h2.8
				c0.4,0,0.7-0.3,0.7-0.7S12.9,8.3,12.5,8.3C12.5,8.3,12.5,8.3,12.5,8.3z"/>
		</g>
	</mask>
	<g style="mask:url(#action-zoom-in-fill-b);">
		<path style="fill:#111111;" d="M-12-12h48v48h-48V-12z"/>
	</g>
</g>
</svg>
